svg/Pictogram/pictograms-aem-0007-force_applied_to_foot.svg

<?xml version="1.0" encoding="ISO-8859-1" standalone="yes"?>
<svg height="304.014" width="304.015">
  <metadata>
    <rdf:RDF xmlns:cc="http://web.resource.org/cc/" xmlns:dc="http://purl.org/dc/elements/1.1/" xmlns:rdf="http://www.w3.org/1999/02/22-rdf-syntax-ns#">
      <cc:Work rdf:about="">
        <dc:title></dc:title>
        <dc:description></dc:description>
        <dc:subject>
          <rdf:Bag>
            <rdf:li></rdf:li>
          </rdf:Bag>
        </dc:subject>
        <dc:publisher>
          <cc:Agent rdf:about="http://www.unece.org/trans/danger/publi/ghs/pictograms.html">
            <dc:title>Source: UNECE GHS of Classification and Labeling of Chemicals, Source: AEM Pictorial Database, Source: AEM Pictorial Database, Source: AEM Pictorial Database, Source: AEM Pictorial Database</dc:title>
          </cc:Agent>
        </dc:publisher>
        <dc:creator>
          <cc:Agent>
            <dc:title></dc:title>
          </cc:Agent>
        </dc:creator>
        <dc:rights>
          <cc:Agent>
            <dc:title></dc:title>
          </cc:Agent>
        </dc:rights>
        <dc:date></dc:date>
        <dc:format>image/svg+xml</dc:format>
        <dc:type rdf:resource="http://purl.org/dc/dcmitype/StillImage"/>
        <cc:license rdf:resource="http://en.wikipedia.org/wiki/Public_domain"/>
        <dc:language>en</dc:language>
      </cc:Work>
    </rdf:RDF>
  </metadata>
  <defs><marker id="ArrowEnd" markerHeight="3" markerUnits="strokeWidth" markerWidth="4" orient="auto" refX="0" refY="5" viewBox="0 0 10 10"><path d="M 0 0 L 10 5 L 0 10 z"/></marker><marker id="ArrowStart" markerHeight="3" markerUnits="strokeWidth" markerWidth="4" orient="auto" refX="10" refY="5" viewBox="0 0 10 10"><path d="M 10 0 L 0 5 L 10 10 z"/></marker> </defs>
  <g id="g2958" transform="matrix(1.3532768,0,0,1.3532781,-53.207834,-52.192858)">
    <path d="M 242.069 52.2884L 168.202 52.2884L 168.202 180.416L 242.128 180.416L 242.069 52.2884" style="stroke:none; fill-rule:evenodd; fill:#000000"/>
    <path d="M 238.339 185.725L 169.808 185.725C 169.808 187.166 168.062 190.565 164.909 194.823L 173.73 219.932L 119.878 238.94L 115.64 226.741C 96.3154 229.717 86.1164 236.299 86.1164 251.725L 155.714 251.725L 190.124 236.756L 190.124 251.526L 237.948 251.526L 237.948 236.17C 237.948 236.17 243.972 223.92 243.972 211.678C 243.972 198.456 238.339 185.819 238.339 185.725" style="stroke:none; fill-rule:evenodd; fill:#000000"/>
    <path d="M 166.968 217.038L 108.804 52.4364L 60.0384 52.3704L 123.241 232.467L 166.968 217.038" style="stroke:none; fill-rule:evenodd; fill:#000000"/>
    <path d="M 137.128 200.44L 113.776 188.362L 122.038 185.26L 115.761 168.569L 132.202 162.385L 138.48 179.081L 146.702 175.998L 137.124 200.44" style="stroke:none; fill-rule:evenodd; fill:#ffffff"/>
    <path d="M 29.6204 265.393L 2.62042 265.393" style="stroke:#000000; stroke-width:0.5; fill:none"/>
    <path d="M 38.6204 274.393L 38.6204 301.393" style="stroke:#000000; stroke-width:0.5; fill:none"/>
    <path d="M 29.6204 38.6204L 2.62042 38.6204" style="stroke:#000000; stroke-width:0.5; fill:none"/>
    <path d="M 38.6204 29.6204L 38.6204 2.62042" style="stroke:#000000; stroke-width:0.5; fill:none"/>
    <path d="M 274.394 38.6204L 301.394 38.6204" style="stroke:#000000; stroke-width:0.5; fill:none"/>
    <path d="M 265.394 29.6204L 265.394 2.62042" style="stroke:#000000; stroke-width:0.5; fill:none"/>
    <path d="M 274.394 265.393L 301.394 265.393" style="stroke:#000000; stroke-width:0.5; fill:none"/>
    <path d="M 265.394 274.393L 265.394 301.393" style="stroke:#000000; stroke-width:0.5; fill:none"/>
  </g>
</svg>

<svg viewBox="0 0 304.01 304.01"><g transform="matrix(1.35328 0 0 1.35328-53.21-52.19)" fill-rule="evenodd"><path d="m242.07 52.29h-73.867v128.13h73.926l-.059-128.13"/><path d="m238.34 185.72h-68.53c0 1.441-1.746 4.84-4.899 9.1l8.821 25.11-53.852 19.01-4.238-12.199c-19.325 2.976-29.524 9.558-29.524 24.984h69.6l34.41-14.969v14.77h47.824v-15.356c0 0 6.02-12.25 6.02-24.492 0-13.222-5.633-25.859-5.633-25.953"/><path d="m166.97 217.04l-58.16-164.6-48.766-.066 63.2 180.1 43.727-15.429"/><path d="m137.13 200.44l-23.352-12.08 8.262-3.102-6.277-16.691 16.441-6.184 6.278 16.696 8.222-3.083-9.578 24.442" fill="#fff"/></g></svg>
